svg/notebook_minus_outline.svg

<svg xmlns="http://www.w3.org/2000/svg" viewBox="0 0 24 24"><path d="M17 4v6l-2-2-2 2V4H9v16h3.1c.1.7.4 1.4.7 2H7c-1.1 0-2-1-2-2v-1H3v-2h2v-4H3v-2h2V7H3V5h2V4c0-1.1.9-2 2-2h12c1 0 2 1 2 2v9.8c-.6-.4-1.3-.6-2-.7V4zM5 19h2v-2H5zm0-6h2v-2H5zm0-6h2V5H5zm9 11v2h8v-2z"/></svg>

<?xml version="1.0" encoding="UTF-8"?><!DOCTYPE svg PUBLIC "-//W3C//DTD SVG 1.1//EN" "http://www.w3.org/Graphics/SVG/1.1/DTD/svg11.dtd"><svg xmlns="http://www.w3.org/2000/svg" xmlns:xlink="http://www.w3.org/1999/xlink" version="1.1" id="mdi-notebook-minus-outline" width="24" height="24" viewBox="0 0 24 24"><path d="M17 4V10L15 8L13 10V4H9V20H12.1C12.2 20.7 12.5 21.4 12.8 22H7C5.9 22 5 21 5 20V19H3V17H5V13H3V11H5V7H3V5H5V4C5 2.9 5.9 2 7 2H19C20 2 21 3 21 4V13.8C20.4 13.4 19.7 13.2 19 13.1V4H17M5 19H7V17H5V19M5 13H7V11H5V13M5 7H7V5H5V7M14 18V20H22V18H14Z" /></svg>
